16x16/apps/com.github.lainsce.aesop.svg

<svg height="16" width="16" xmlns="http://www.w3.org/2000/svg"><path d="m3.72 4.4h8.944v10.8h-8.944z" fill="#4f4f4f"/><path d="m3 6h2v8h-2zm8 0h2v8h-2zm-4 0h2v8h-2z" fill="#d4d4d4"/><rect fill="#969696" height="2" rx=".658" ry=".571" width="12" x="2" y="13"/><rect fill="#969696" height="2" rx=".658" ry=".571" width="12" x="2" y="5"/><path d="m7.408.274-2.908 1.742-2.898 1.736c-.638.358-.552.196-.602.883v1.257c0 .06.039.108.086.108h13.828c.047 0 .086-.048.086-.108v-1.23c-.001-.723-.017-.56-.625-.924l-2.875-1.722-2.892-1.733c-.535-.42-.665-.33-1.2-.01zm-5.641 13.726c-.425 0-.767.378-.767.848v1.152h14v-1.152c0-.47-.342-.848-.767-.848z" fill="#d4d4d4" fill-rule="evenodd"/></svg>

<svg xmlns="http://www.w3.org/2000/svg" width="16" height="16" version="1"><path style="fill:#4f4f4f" d="M3.72 4.4h8.944v10.8H3.72z"/><path style="fill:#d4d4d4" d="M3 6h2v8H3zM11 6h2v8h-2zM7 6h2v8H7z"/><rect style="fill:#969696" width="12" height="2" x="2" y="13" rx=".658" ry=".571"/><rect style="fill:#969696" width="12" height="2" x="2" y="5" rx=".658" ry=".571"/><path style="fill:#d4d4d4;fill-rule:evenodd" d="M7.408.274 4.5 2.016 1.602 3.752c-.638.358-.552.196-.602.883v1.257c0 .06.039.108.086.108h13.828c.047 0 .086-.048.086-.108v-1.23c-.001-.723-.017-.56-.625-.924L11.5 2.016 8.608.283c-.535-.42-.665-.33-1.2-.01zM1.767 14c-.425 0-.767.378-.767.848V16h14v-1.152c0-.47-.342-.848-.767-.848z"/></svg>
